images/type_icons/Pokemon_Type_Icon_Rock.svg

<svg viewBox="0 0 128 128" xmlns="http://www.w3.org/2000/svg" xml:space="preserve" style="fill-rule:evenodd;clip-rule:evenodd;stroke-linejoin:round;stroke-miterlimit:2"><circle cx="64" cy="64" r="64" style="fill:#b6a136"/><path d="m95 34 10 31-13 16-9-14 12-33zm-21 67 14-16-10-14-31 21 27 9zM52 34 24 64l1 21 15 5 37-25 11-31H52z" style="fill:#fff;fill-rule:nonzero"/></svg>

<svg xmlns="http://www.w3.org/2000/svg" viewBox="0 0 128 128"><defs><style>.cls-1{fill:#c7b78b;}.cls-2{fill:#fff;}</style></defs><title>rock</title><g id="rock"><circle class="cls-1" cx="64" cy="64" r="64"/><path class="cls-2" d="M95,34l10,31L92,81,83,67ZM74,101,88,85,78,71,47,92ZM52,34,24,64l1,21,15,5L77,65,88,34Z"/></g></svg>
